X:1
T:Title
%%score { ( 1 3 ) | ( 2 4 ) }
L:1/8
M:4/4
K:Db
V:1 treble nm="Grand Piano"
V:3 treble 
V:2 bass 
V:4 bass 
V:1
 z4 z2[Q:1/4=100] [DF]>[EG] | z4 z2 .B2 | [Fd]6 d2 | c2 c2 B2 [Gc]2 |[M:3/4] [GB]2 [FA]2 [FA]2 | %5
[M:1/4] [DF]>[EG] |[M:4/4] z4 z2 .B2 | [Fd]6 [Af]>e | d2 d2 [Gc]2 [Gc]2 |[M:3/4] [Fd]6 | %10
[M:1/4] (3FG=G |[M:4/4] A6 z2 | d6 z2 | c>c c>c B>B (3[GB]A[A,EG] | [DF]6 z2 | A6 z2 |[M:3/4] d6 | %17
[M:1/4] [Af]>[Af] |[M:4/4] e>e e>e c>c (3[G-c][GB][Gc] |[M:7/8] d-d-d- d- d3 |] %20
V:2
 z4 z2 [D,A,]>[D,A,] | [D,D]2 [D,D]2 [D,D]2 [D,D]2 | [D,A,]6 [F,A,D]2 | %3
 [A,E]2 [A,E]2 [A,G]2[K:bass] [A,,A,]2 |[M:3/4] [D,A,]2 [D,D]2 [D,D]2 |[M:1/4] [=D,A,]>[D,A,] | %6
[M:4/4] [D,D]2 [D,D]2 [D,D]2 [D,D]2 | [D,A,]6 [D,D]>[K:treble][G,B,G] | %8
 [A,F]2 [A,F]2[K:bass] [A,,A,]2 [A,,A,]2 |[M:3/4] [D,A,]6 |[M:1/4] (3DE[K:treble]_F | %11
[M:4/4] F6[K:bass][K:treble] z2 | F6[K:bass] z2 | %13
 [A,G]>[A,G] [A,G]>[A,G] [A,G]>[A,G][K:bass] (3[A,,A,]-[A,,A,F]A,, | %14
 D,2 D,>D, D,2[K:treble] (3DE_F | F6[K:bass][K:treble] z2 |[M:3/4] F6[K:bass] | %17
[M:1/4] [D,D]>[D,D] | %18
[M:4/4][K:treble] [G,B,G]>[G,B,G] [G,B,G]>[G,B,G] [A,G]>[A,G][K:bass] (3:2:2[A,,A,]2 [A,,A,] | %19
[M:7/8] A,2 z z z z2 |] %20
V:3
 x8 | [FA]2 [FA]2 [FA]2 G-[Gc] | x8 | x8 |[M:3/4] x6 |[M:1/4] x2 | %6
[M:4/4] [FA]2 [FA]2 [FA]2 G-[Gc] | x8 | x8 |[M:3/4] x6 |[M:1/4] x2 |[M:4/4] z2 D>D D2 (3ABc | %12
 z2 A,>A, A,2 [Fd]>[Fd] | x8 | A,2 A,>A, A,2 (3FG=G | z2 D>D D2 (3ABc |[M:3/4] z2 A,>A, A,2 | %17
[M:1/4] x2 |[M:4/4] x8 |[M:7/8] F2 G>G F3 |] %20
V:4
 x8 | x8 | x8 | x6[K:bass] x2 |[M:3/4] x6 |[M:1/4] x2 |[M:4/4] x8 | x15/2[K:treble] x/ | %8
 x4[K:bass] x4 |[M:3/4] x6 |[M:1/4] x4/3[K:treble] x2/3 | %11
[M:4/4] z2[K:bass] D,>D, D,2[K:treble] (3FGG | z2[K:bass] D,>D, D,2 [D,A,]>[D,A,] | x6[K:bass] x2 | %14
 x6[K:treble] x2 | z2[K:bass] D,>D, D,2[K:treble] (3FGG |[M:3/4] z2[K:bass] D,>D, D,2 |[M:1/4] x2 | %18
[M:4/4][K:treble] x6[K:bass] x2 |[M:7/8] D,2- [D,-B,]>[D,-B,] [D,A,]3 |] %20

